src/images/icon/icon_about.svg

<svg height="20" viewBox="0 0 20 20" width="20" xmlns="http://www.w3.org/2000/svg"><g fill="none" fill-rule="evenodd" transform="translate(2 1.503379)"><path d="m9 0c.95921293 0 1.7607087.67526748 1.9550443 1.57635952l-5.9550443.00026184c-1.88881384 0-3.42 1.53118615-3.42 3.42l.00031892 8.95927264c-.90307263-.1928387-1.58031892-.9952767-1.58031892-1.955894v-10c0-1.1045695.8954305-2 2-2z" fill="#b6c2cd"/><g fill-rule="nonzero" transform="translate(3 3.003909)"><path d="m8.17358949 0v1.99744113c.00692484 1.22134458.92103459 2.40912342 2.48453931 2.41298077h2.1304895v7.5476631c.0091118.534827-.2109574 1.0508388-.6111631 1.4330372-.4002057.3821983-.9472888.5988206-1.5193264.6015904h-8.52195799c-1.17847904-.0029191-2.133049-.8954963-2.13617081-1.9974412v-9.99783027c.00312181-1.10194489.95769177-1.99452206 2.13617081-1.99744113z" fill="#36435c"/><path d="m9.59004339 0 3.19857491 2.99084934h-2.1304895c-.2875173.01720403-.5691166-.08173074-.77338036-.27171303-.20426377-.18998229-.31157028-.45276228-.29470505-.72169518z" fill="#b6c2cd"/></g><path d="m6.83329254 9.39593737 2.30294865 2.59920733c.18312748.2066856.49913342.2257832.70581902.0426558.02326162-.0206103.04455097-.0433445.06359165-.0679074l1.99527604-2.57395573" stroke="#fff" stroke-linecap="round" stroke-width="1.5"/></g></svg>

<?xml version="1.0" encoding="UTF-8"?>
<svg width="20px" height="20px" viewBox="0 0 20 20" version="1.1" xmlns="http://www.w3.org/2000/svg" xmlns:xlink="http://www.w3.org/1999/xlink">
    <title>icon_about</title>
    <g id="Dashboard" stroke="none" stroke-width="1" fill="none" fill-rule="evenodd">
        <g id="00-Icon、DropDown" transform="translate(-173.000000, -282.000000)">
            <g id="icon_about" transform="translate(173.000000, 282.000000)">
                <g id="版本信息_1" transform="translate(2.000000, 1.503379)">
                    <path d="M9,0 C9.95921293,0 10.7607087,0.675267482 10.9550443,1.57635952 L5,1.57662136 C3.11118616,1.57662136 1.58,3.10780751 1.58,4.99662136 L1.58031892,13.955894 C0.677246287,13.7630553 0,12.9606173 0,12 L0,2 C0,0.8954305 0.8954305,0 2,0 L9,0 Z" id="形状" fill="#B6C2CD"></path>
                    <g id="编组-3" transform="translate(3.000000, 3.003909)" fill-rule="nonzero">
                        <path d="M8.17358949,0 L8.17358949,1.99744113 C8.18051433,3.21878571 9.09462408,4.40656455 10.6581288,4.4104219 L12.7886183,4.4104219 L12.7886183,11.958085 C12.7977301,12.492912 12.5776609,13.0089238 12.1774552,13.3911222 C11.7772495,13.7733205 11.2301664,13.9899428 10.6581288,13.9927126 L2.13617081,13.9927126 C0.957691766,13.9897935 0.00312180936,13.0972163 0,11.9952714 L0,1.99744113 C0.00312180936,0.895496238 0.957691766,0.0029190692 2.13617081,0 L8.17358949,0 Z" id="路径" fill="#36435C"></path>
                        <path d="M9.59004339,0 L12.7886183,2.99084934 L10.6581288,2.99084934 C10.3706115,3.00805337 10.0890122,2.9091186 9.88474844,2.71913631 C9.68048467,2.52915402 9.57317816,2.26637403 9.59004339,1.99744113 L9.59004339,0 Z" id="路径" fill="#B6C2CD"></path>
                    </g>
                    <path d="M6.83329254,9.39593737 L9.13624119,11.9951447 C9.31936867,12.2018303 9.63537461,12.2209279 9.84206021,12.0378005 C9.86532183,12.0171902 9.88661118,11.994456 9.90565186,11.9698931 L11.9009279,9.39593737 L11.9009279,9.39593737" id="路径-5" stroke="#FFFFFF" stroke-width="1.5" stroke-linecap="round"></path>
                </g>
            </g>
        </g>
    </g>
</svg>
